dist/img/sprites/icon_plan.svg

<svg width="25" height="25" viewBox="0 0 25 25" fill="none" xmlns="http://www.w3.org/2000/svg">
<g clip-path="url(#clip0_201_1034)">
<path d="M24.9999 3.67245C24.9999 3.01653 24.4658 2.48237 23.8101 2.48237H5.94645C5.67236 1.10494 4.45477 0.064209 3.00111 0.064209C1.3462 0.064209 0 1.41379 0 3.07209V20.4016C0.00338802 22.053 1.3462 23.3955 2.99759 23.3955H23.8067C24.4623 23.3955 24.9965 22.8614 24.9965 22.2055V3.67245H24.9999ZM3.0045 1.24392C4.0106 1.24392 4.82583 2.0626 4.82583 3.07209V18.0077C4.30358 17.6063 3.66311 17.3892 3.00443 17.3902C2.34597 17.3902 1.70587 17.6073 1.18316 18.0077V3.07209C1.17944 2.0626 1.99839 1.24392 3.0045 1.24392ZM1.17944 20.391C1.17944 19.3849 1.99839 18.5696 3.00104 18.5696C4.00715 18.5696 4.82237 19.3883 4.82237 20.391V20.3982C4.82237 20.7242 5.08596 20.9879 5.41209 20.9879C5.73822 20.9879 6.00181 20.7243 6.00181 20.3982V3.66181H23.8029C23.8135 3.66181 23.8135 3.66554 23.8135 3.67245V22.202C23.8135 22.2126 23.8101 22.2126 23.8029 22.2126H2.99759C1.99493 22.216 1.17944 21.3971 1.17944 20.391Z" fill="#23272B"/>
<path d="M7.69507 16.6512C7.42796 16.6512 7.20937 16.8698 7.20937 17.1369V17.2306H6.97695C6.70963 17.2306 6.49124 17.449 6.49124 17.7163C6.49124 17.9834 6.70963 18.202 6.97695 18.202H7.20937V18.2957C7.20937 18.5628 7.42796 18.7814 7.69507 18.7814H8.90914C9.17652 18.7814 9.39484 18.5628 9.39484 18.2957V18.202H14.6301V18.2957C14.6301 18.5628 14.8488 18.7814 15.1159 18.7814H16.3303C16.5973 18.7814 16.816 18.5628 16.816 18.2957V17.1335C16.816 16.8662 16.5973 16.6478 16.3303 16.6478H16.2157V13.9763H16.3303C16.5973 13.9763 16.816 13.7577 16.816 13.4906V13.4075H19.8238V13.4906C19.8238 13.7577 20.0422 13.9763 20.3096 13.9763H21.5238C21.7907 13.9763 22.0094 13.7577 22.0094 13.4906V12.3389C22.0094 12.0716 21.7908 11.8532 21.5238 11.8532H21.4094V7.91893H21.5238C21.7907 7.91893 22.0094 7.70027 22.0094 7.43322V6.27086C22.0094 6.00382 21.7908 5.78516 21.5238 5.78516H20.3096C20.0422 5.78516 19.8239 6.00382 19.8239 6.27086V6.36458H16.816V6.27086C16.816 6.00382 16.5973 5.78516 16.3303 5.78516H15.1159C14.8488 5.78516 14.6301 6.00382 14.6301 6.27086V6.36458H9.39484V6.27086C9.39484 6.00382 9.17652 5.78516 8.90914 5.78516H7.69501C7.42803 5.78516 7.20937 6.00382 7.20937 6.27086V6.36458H6.97695C6.70963 6.36458 6.49124 6.58324 6.49124 6.85028C6.49124 7.11733 6.70963 7.33599 6.97695 7.33599H7.20937V7.4297C7.20937 7.69674 7.42796 7.91541 7.69501 7.91541H7.82341V16.6477H7.69501L7.69507 16.6512ZM19.8273 7.33599V7.4297C19.8273 7.69674 20.0457 7.91541 20.313 7.91541H20.4414V11.8532H20.313C20.0457 11.8532 19.8273 12.0716 19.8273 12.3389V12.4323H16.8194V12.3389C16.8194 12.0716 16.6008 11.8532 16.3337 11.8532H16.2191V7.91886H16.3337C16.6008 7.91886 16.8194 7.7002 16.8194 7.43316V7.33944H19.8273V7.33599ZM8.79482 7.91886H8.90914C9.17652 7.91886 9.39484 7.7002 9.39484 7.43316V7.33944H14.6301V7.43316C14.6301 7.7002 14.8488 7.91886 15.1159 7.91886H15.2443V11.8566H15.1159C14.8488 11.8566 14.6301 12.075 14.6301 12.3423V13.494C14.6301 13.761 14.8488 13.9797 15.1159 13.9797H15.2443V16.6512H15.1159C14.8488 16.6512 14.6301 16.8698 14.6301 17.1369V17.2306H9.39484V17.1369C9.39484 16.8698 9.17652 16.6512 8.90914 16.6512H8.79482V7.91886Z" fill="#23272B"/>
</g>
<defs>
<clipPath id="clip0_201_1034">
<rect width="25" height="25" fill="white"/>
</clipPath>
</defs>
</svg>

<svg width="25" height="25" viewBox="0 0 25 25" fill="none" xmlns="http://www.w3.org/2000/svg"><g clip-path="url(#clip0_201_1034)" fill="#23272B"><path d="M25 3.672c0-.655-.534-1.19-1.19-1.19H5.946A3.01 3.01 0 003.001.064 3.008 3.008 0 000 3.072v17.33a3.002 3.002 0 002.998 2.993h20.809c.655 0 1.19-.534 1.19-1.19V3.672H25zM3.005 1.244c1.006 0 1.82.819 1.82 1.828v14.936a2.995 2.995 0 00-3.643 0V3.072a1.822 1.822 0 011.823-1.828zM1.179 20.39a1.823 1.823 0 013.643 0v.007a.59.59 0 101.18 0V3.662h17.8c.012 0 .012.004.012.01v18.53c0 .01-.004.01-.011.01H2.998a1.819 1.819 0 01-1.819-1.821z"/><path d="M7.695 16.651a.487.487 0 00-.486.486v.094h-.232a.487.487 0 000 .971h.232v.094c0 .267.219.485.486.485H8.91a.487.487 0 00.486-.485v-.094h5.235v.094c0 .267.219.485.486.485h1.214a.487.487 0 00.486-.485v-1.162a.487.487 0 00-.486-.486h-.114v-2.672h.114a.487.487 0 00.486-.485v-.083h3.008v.083c0 .267.218.485.486.485h1.214a.487.487 0 00.485-.485v-1.152a.487.487 0 00-.485-.486h-.115V7.92h.115a.487.487 0 00.485-.486V6.271a.487.487 0 00-.485-.486H20.31a.487.487 0 00-.486.486v.094h-3.008V6.27a.487.487 0 00-.486-.486h-1.214a.487.487 0 00-.486.486v.094H9.395V6.27a.487.487 0 00-.486-.486H7.695a.487.487 0 00-.486.486v.094h-.232a.487.487 0 00-.486.485c0 .267.219.486.486.486h.232v.094c0 .267.219.485.486.485h.128v8.733h-.128v.003zm12.132-9.315v.094c0 .267.219.485.486.485h.128v3.938h-.128a.487.487 0 00-.486.486v.093H16.82v-.093a.487.487 0 00-.485-.486h-.115V7.92h.115a.487.487 0 00.485-.486V7.34h3.008v-.003zm-11.032.583h.114a.487.487 0 00.486-.486V7.34h5.235v.094c0 .267.219.486.486.486h.128v3.938h-.128a.487.487 0 00-.486.485v1.152c0 .267.219.486.486.486h.128v2.671h-.128a.487.487 0 00-.486.486v.094H9.395v-.094a.487.487 0 00-.486-.486h-.114V7.92z"/></g><defs><clipPath id="clip0_201_1034"><path fill="#fff" d="M0 0h25v25H0z"/></clipPath></defs></svg>
